X: 20601
M: C|
L: 1/8
K: Bb
V: 1 staves=3
|:\
|:\
cBcd dcdf | gfga bagf | bagf edcB | Acfe gfed |\
V: 2
|:\
|:\
V: 3 clef=bass middle=d
|:\
|:\
f2f2 f2f2 | e2f2 B2B2 | B2B2 B2B2 | f2f2 f2f2 |\


